X: 38324
T: Stack Of Oats, The
R: barndance
M: 4/4
K: Gmajor
|:E/D>G|B4 B>AG>E|D2 D>E D>B,D>G|B2 A>B (3cdc B2|E2- E>F E2 F>G|
A>GF>G A>FD>F|G>FG>A B>^AB>e|(3dcB (3cBA E2 F2|G2- G>A G3/2:|
B/B>c|d2 d2 g2 g2|d>ed>B G2 (3ABc|d2 d2 g2 d2|f8|
c2 A>B c2 d>g|f2 (3fff f2 (3fff|e2 (3eee e2 f2|e>d^c>e d>B=c>^c|
d2 d2 g2 g2|d>ed>B G2 B>c|d2 d2 g2 d2|b8|
a>ba>f d2- d>a|g>ag>d B2- B>e|d>B (3cBA (3EFE (3DEF|G2 F2 G3/2||

